X: 22
T:Crucaharan Cross
R:Polka
M:2/4
L:1/8
K:G
B/A/|:GdBd|G>AGe|dBB/A/G/A/|BAAB/A/|
GdBd|G>AGe|dBAB/A/|G2Gz:|
:e>d e/f/g|G>AGe|dB B/A/G/A/|BAAd|
e>d e/f/g|G>AGe|dBAB/A/|G2Gz:
